X:1
T:[ID 1-134]
T:[ID 1-134]
T:Bezeichnung standardisiert: Menuet [mit Trio] Men\"uet Con Trio In dieser Quelle auch als: Menuetto
T:Urheber unbekannt Datum in der hier transkribierten schriftlichen Quelle: vermutlich vor 1767
C:Urheber unbekannt
C:Datum in der hier transkribierten schriftlichen Quelle: vermutlich vor 1767
%%score 1 2
L:1/8
M:3/4
K:D
V:1 treble nm="1mo"
V:2 treble 
V:1
 D2 d2 d2 | d>fe>g f2 | D2 f2 f2 | f>ag>b a2 | bdef (3gab | a2 (3cde d2 | ec g2 f2 |{f} e6 :: %8
 a4 ec | B3 c/d/ c2 | f>d{c} B4 |{B} A6 |"^O)" d2 f2 a2 | g>be>g f2 |"^O)" d2 f2 a2 | g>be>g f2 | %16
 b^def (3gab | a2 (3cde d2 | Bg f2 e2 | d6 :|"^Trio" !fermata!A4 FA |{A} G2 EG F2 | f4 df | %23
{f} e2 ce d2 | A2 GFED | B2 c2 d2 | ef g2 f2 |{f} e6 :: e4 ce | d2 Bd c2 | a4 fa | g2 eg f2 | %32
 B2 B2 gB | A4 fA | AG F2 E2 | D6 :| %36
V:2
"^1)" !fermata!x6 | z6 | D2 d2 d2 | d>fe>g f2 | g2 c2 e2 | f2 (3ABc B2 | cA e2 d2 | c6 :: c4 cA | %9
 ^G2 A4 | dB ^G4 | C6 |"^O)" d2 d2 f2 | e>gc>e d2 |"^O)" d2 d2 f2 | e>gc>e d2 | g2 c2 e2 | %17
 f2 (3ABc B2 | Ge d2 c2 | F6 :| F4 DF |{F} E2 CE D2 | A4 FA | G2 EG F2 | A2 GFED | G2 E2 F2 | %26
 cd e2 d2 |{d} c6 :: c4 Ac | B2 ^GB A2 | f4 df | e2 ce d2 | G4 BG | F4 AF | FE D2 C2 | %35
 D6"^Men: Da Capo" :| %36

